src/assets/Logo.svg

<svg width="280" height="35" viewBox="0 0 280 35" fill="none" xmlns="http://www.w3.org/2000/svg">
<path d="M25.5438 2.98828L19.625 13.8699L22.0404 24.4343L27.7287 15.1971L25.5438 2.98828Z" fill="#FBBA01"/>
<path d="M6.79816 32.1013L0 2.90234H7.86131L10.7666 15.7187L17.2607 2.90234L25.5492 2.98779L9.73373 32.1013H6.79816Z" fill="#FB0200"/>
<path d="M34.3476 2.90234L27.6826 15.2061L22.043 24.4338L23.9452 32.1013H26.2628L37.4417 11.9135L34.3476 2.90234Z" fill="#32AB15"/>
<path d="M38.7891 14.6934L37.4399 11.9135L32.6895 20.5056L35.1449 32.1013H37.5397L53.1446 2.90234H45.625L38.7891 14.6934Z" fill="#4184ED"/>
<path d="M73.9746 23.5469L78.999 6.67188H83.8916L76.4648 28H73.2422L73.9746 23.5469ZM69.3457 6.67188L74.3555 23.5469L75.1172 28H71.8652L64.4824 6.67188H69.3457ZM93.501 24.4258V17.3652C93.501 16.8574 93.418 16.4229 93.252 16.0615C93.0859 15.6904 92.8271 15.4023 92.4756 15.1973C92.1338 14.9922 91.6895 14.8896 91.1426 14.8896C90.6738 14.8896 90.2686 14.9727 89.9268 15.1387C89.585 15.2949 89.3213 15.5244 89.1357 15.8271C88.9502 16.1201 88.8574 16.4668 88.8574 16.8672H84.6387C84.6387 16.1934 84.7949 15.5537 85.1074 14.9482C85.4199 14.3428 85.874 13.8105 86.4697 13.3516C87.0654 12.8828 87.7734 12.5166 88.5938 12.2529C89.4238 11.9893 90.3516 11.8574 91.377 11.8574C92.6074 11.8574 93.7012 12.0625 94.6582 12.4727C95.6152 12.8828 96.3672 13.498 96.9141 14.3184C97.4707 15.1387 97.749 16.1641 97.749 17.3945V24.1768C97.749 25.0459 97.8027 25.7588 97.9102 26.3154C98.0176 26.8623 98.1738 27.3408 98.3789 27.751V28H94.1162C93.9111 27.5703 93.7549 27.0332 93.6475 26.3887C93.5498 25.7344 93.501 25.0801 93.501 24.4258ZM94.0576 18.3467L94.0869 20.7344H91.7285C91.1719 20.7344 90.6885 20.7979 90.2783 20.9248C89.8682 21.0518 89.5312 21.2324 89.2676 21.4668C89.0039 21.6914 88.8086 21.9551 88.6816 22.2578C88.5645 22.5605 88.5059 22.8926 88.5059 23.2539C88.5059 23.6152 88.5889 23.9424 88.7549 24.2354C88.9209 24.5186 89.1602 24.7432 89.4727 24.9092C89.7852 25.0654 90.1514 25.1436 90.5713 25.1436C91.2061 25.1436 91.7578 25.0166 92.2266 24.7627C92.6953 24.5088 93.0566 24.1963 93.3105 23.8252C93.5742 23.4541 93.7109 23.1025 93.7207 22.7705L94.834 24.5576C94.6777 24.958 94.4629 25.373 94.1895 25.8027C93.9258 26.2324 93.5889 26.6377 93.1787 27.0186C92.7686 27.3896 92.2754 27.6973 91.6992 27.9414C91.123 28.1758 90.4395 28.293 89.6484 28.293C88.6426 28.293 87.7295 28.0928 86.9092 27.6924C86.0986 27.2822 85.4541 26.7207 84.9756 26.0078C84.5068 25.2852 84.2725 24.4648 84.2725 23.5469C84.2725 22.7168 84.4287 21.9795 84.7412 21.335C85.0537 20.6904 85.5127 20.1484 86.1182 19.709C86.7334 19.2598 87.5 18.9229 88.418 18.6982C89.3359 18.4639 90.4004 18.3467 91.6113 18.3467H94.0576ZM105.117 5.5V28H100.898V5.5H105.117ZM104.517 19.5186H103.359C103.369 18.415 103.516 17.3994 103.799 16.4717C104.082 15.5342 104.487 14.7236 105.015 14.04C105.542 13.3467 106.172 12.8096 106.904 12.4287C107.646 12.0479 108.467 11.8574 109.365 11.8574C110.146 11.8574 110.854 11.9697 111.489 12.1943C112.134 12.4092 112.686 12.7607 113.145 13.249C113.613 13.7275 113.975 14.3574 114.229 15.1387C114.482 15.9199 114.609 16.8672 114.609 17.9805V28H110.361V17.9512C110.361 17.248 110.259 16.6963 110.054 16.2959C109.858 15.8857 109.57 15.5977 109.189 15.4316C108.818 15.2559 108.359 15.168 107.812 15.168C107.207 15.168 106.689 15.2803 106.26 15.5049C105.84 15.7295 105.503 16.042 105.249 16.4424C104.995 16.833 104.81 17.292 104.692 17.8193C104.575 18.3467 104.517 18.9131 104.517 19.5186ZM126.372 24.4258V17.3652C126.372 16.8574 126.289 16.4229 126.123 16.0615C125.957 15.6904 125.698 15.4023 125.347 15.1973C125.005 14.9922 124.561 14.8896 124.014 14.8896C123.545 14.8896 123.14 14.9727 122.798 15.1387C122.456 15.2949 122.192 15.5244 122.007 15.8271C121.821 16.1201 121.729 16.4668 121.729 16.8672H117.51C117.51 16.1934 117.666 15.5537 117.979 14.9482C118.291 14.3428 118.745 13.8105 119.341 13.3516C119.937 12.8828 120.645 12.5166 121.465 12.2529C122.295 11.9893 123.223 11.8574 124.248 11.8574C125.479 11.8574 126.572 12.0625 127.529 12.4727C128.486 12.8828 129.238 13.498 129.785 14.3184C130.342 15.1387 130.62 16.1641 130.62 17.3945V24.1768C130.62 25.0459 130.674 25.7588 130.781 26.3154C130.889 26.8623 131.045 27.3408 131.25 27.751V28H126.987C126.782 27.5703 126.626 27.0332 126.519 26.3887C126.421 25.7344 126.372 25.0801 126.372 24.4258ZM126.929 18.3467L126.958 20.7344H124.6C124.043 20.7344 123.56 20.7979 123.149 20.9248C122.739 21.0518 122.402 21.2324 122.139 21.4668C121.875 21.6914 121.68 21.9551 121.553 22.2578C121.436 22.5605 121.377 22.8926 121.377 23.2539C121.377 23.6152 121.46 23.9424 121.626 24.2354C121.792 24.5186 122.031 24.7432 122.344 24.9092C122.656 25.0654 123.022 25.1436 123.442 25.1436C124.077 25.1436 124.629 25.0166 125.098 24.7627C125.566 24.5088 125.928 24.1963 126.182 23.8252C126.445 23.4541 126.582 23.1025 126.592 22.7705L127.705 24.5576C127.549 24.958 127.334 25.373 127.061 25.8027C126.797 26.2324 126.46 26.6377 126.05 27.0186C125.64 27.3896 125.146 27.6973 124.57 27.9414C123.994 28.1758 123.311 28.293 122.52 28.293C121.514 28.293 120.601 28.0928 119.78 27.6924C118.97 27.2822 118.325 26.7207 117.847 26.0078C117.378 25.2852 117.144 24.4648 117.144 23.5469C117.144 22.7168 117.3 21.9795 117.612 21.335C117.925 20.6904 118.384 20.1484 118.989 19.709C119.604 19.2598 120.371 18.9229 121.289 18.6982C122.207 18.4639 123.271 18.3467 124.482 18.3467H126.929ZM138.003 15.5342V28H133.784V12.1504H137.739L138.003 15.5342ZM137.388 19.5186H136.245C136.245 18.3467 136.396 17.292 136.699 16.3545C137.002 15.4072 137.427 14.6016 137.974 13.9375C138.521 13.2637 139.17 12.751 139.922 12.3994C140.684 12.0381 141.533 11.8574 142.471 11.8574C143.213 11.8574 143.892 11.9648 144.507 12.1797C145.122 12.3945 145.649 12.7363 146.089 13.2051C146.538 13.6738 146.88 14.2939 147.114 15.0654C147.358 15.8369 147.48 16.7793 147.48 17.8926V28H143.232V17.8779C143.232 17.1748 143.135 16.6279 142.939 16.2373C142.744 15.8467 142.456 15.5732 142.075 15.417C141.704 15.251 141.245 15.168 140.698 15.168C140.132 15.168 139.639 15.2803 139.219 15.5049C138.809 15.7295 138.467 16.042 138.193 16.4424C137.93 16.833 137.729 17.292 137.593 17.8193C137.456 18.3467 137.388 18.9131 137.388 19.5186ZM155.215 23.8984L158.511 12.1504H161.191L160.327 16.7646L157.031 28H154.79L155.215 23.8984ZM153.545 12.1504L155.903 23.8838L156.123 28H153.486L149.473 12.1504H153.545ZM164.209 23.6934L166.509 12.1504H170.596L166.582 28H163.96L164.209 23.6934ZM161.558 12.1504L164.839 23.8105L165.293 28H163.037L159.741 16.7793L158.906 12.1504H161.558ZM177.173 12.1504V28H172.939V12.1504H177.173ZM172.676 8.01953C172.676 7.4043 172.891 6.89648 173.32 6.49609C173.75 6.0957 174.326 5.89551 175.049 5.89551C175.762 5.89551 176.333 6.0957 176.763 6.49609C177.202 6.89648 177.422 7.4043 177.422 8.01953C177.422 8.63477 177.202 9.14258 176.763 9.54297C176.333 9.94336 175.762 10.1436 175.049 10.1436C174.326 10.1436 173.75 9.94336 173.32 9.54297C172.891 9.14258 172.676 8.63477 172.676 8.01953ZM184.878 15.6074V28H180.659V12.1504H184.629L184.878 15.6074ZM189.653 12.0479L189.58 15.959C189.375 15.9297 189.126 15.9053 188.833 15.8857C188.55 15.8564 188.291 15.8418 188.057 15.8418C187.461 15.8418 186.943 15.9199 186.504 16.0762C186.074 16.2227 185.713 16.4424 185.42 16.7354C185.137 17.0283 184.922 17.3848 184.775 17.8047C184.639 18.2246 184.561 18.7031 184.541 19.2402L183.691 18.9766C183.691 17.9512 183.794 17.0088 183.999 16.1494C184.204 15.2803 184.502 14.5234 184.893 13.8789C185.293 13.2344 185.781 12.7363 186.357 12.3848C186.934 12.0332 187.593 11.8574 188.335 11.8574C188.569 11.8574 188.809 11.877 189.053 11.916C189.297 11.9453 189.497 11.9893 189.653 12.0479ZM198.647 28.293C197.417 28.293 196.313 28.0977 195.337 27.707C194.36 27.3066 193.53 26.7549 192.847 26.0518C192.173 25.3486 191.655 24.5332 191.294 23.6055C190.933 22.668 190.752 21.6719 190.752 20.6172V20.0312C190.752 18.8301 190.923 17.7314 191.265 16.7354C191.606 15.7393 192.095 14.875 192.729 14.1426C193.374 13.4102 194.155 12.8486 195.073 12.458C195.991 12.0576 197.026 11.8574 198.179 11.8574C199.302 11.8574 200.298 12.043 201.167 12.4141C202.036 12.7852 202.764 13.3125 203.35 13.9961C203.945 14.6797 204.395 15.5 204.697 16.457C205 17.4043 205.151 18.459 205.151 19.6211V21.3789H192.554V18.5664H201.006V18.2441C201.006 17.6582 200.898 17.1357 200.684 16.6768C200.479 16.208 200.166 15.8369 199.746 15.5635C199.326 15.29 198.789 15.1533 198.135 15.1533C197.578 15.1533 197.1 15.2754 196.699 15.5195C196.299 15.7637 195.972 16.1055 195.718 16.5449C195.474 16.9844 195.288 17.502 195.161 18.0977C195.044 18.6836 194.985 19.3281 194.985 20.0312V20.6172C194.985 21.252 195.073 21.8379 195.249 22.375C195.435 22.9121 195.693 23.376 196.025 23.7666C196.367 24.1572 196.777 24.46 197.256 24.6748C197.744 24.8896 198.296 24.9971 198.911 24.9971C199.673 24.9971 200.381 24.8506 201.035 24.5576C201.699 24.2549 202.271 23.8008 202.749 23.1953L204.8 25.4219C204.468 25.9004 204.014 26.3594 203.438 26.7988C202.871 27.2383 202.188 27.5996 201.387 27.8828C200.586 28.1562 199.673 28.293 198.647 28.293Z" fill="black"/>
</svg>

<svg xmlns="http://www.w3.org/2000/svg" width="280" height="35" fill="none" viewBox="0 0 280 35"><path fill="#fbba01" d="M25.544 2.988 19.625 13.87l2.415 10.564 5.689-9.237z"/><path fill="#fb0200" d="M6.798 32.101 0 2.902h7.861l2.906 12.817L17.26 2.902l8.288.086L9.734 32.1z"/><path fill="#32ab15" d="m34.348 2.902-6.665 12.304-5.64 9.228 1.902 7.667h2.318l11.179-20.187z"/><path fill="#4184ed" d="m38.79 14.693-1.35-2.78-4.75 8.593L35.145 32.1h2.395L53.145 2.902h-7.52z"/><path fill="#000" d="m73.975 23.547 5.024-16.875h4.893L76.465 28h-3.223zm-4.63-16.875 5.01 16.875.762 4.453h-3.252L64.482 6.672zm24.156 17.754v-7.06q0-.763-.249-1.305a1.85 1.85 0 0 0-.776-.864q-.514-.307-1.333-.307-.704 0-1.216.249a1.76 1.76 0 0 0-.791.688q-.279.44-.279 1.04H84.64q0-1.01.468-1.919.47-.908 1.363-1.596.892-.704 2.124-1.1 1.245-.395 2.783-.395 1.845 0 3.281.616 1.436.615 2.256 1.845.835 1.23.835 3.077v6.782q0 1.304.161 2.138a5.6 5.6 0 0 0 .469 1.436V28h-4.263q-.307-.645-.469-1.611a13 13 0 0 1-.146-1.963m.557-6.08.029 2.388h-2.359q-.835 0-1.45.19-.615.191-1.01.543a2.1 2.1 0 0 0-.586.79 2.7 2.7 0 0 0-.176.997q0 .541.249.981.249.425.718.674.468.234 1.098.235.953 0 1.656-.381.702-.381 1.084-.938.395-.556.41-1.055l1.113 1.788q-.234.6-.645 1.245-.395.645-1.01 1.216-.615.556-1.48.922-.865.352-2.05.352-1.51 0-2.74-.6a5 5 0 0 1-1.933-1.685q-.704-1.084-.704-2.461 0-1.245.47-2.212a4.3 4.3 0 0 1 1.376-1.626q.923-.675 2.3-1.01 1.377-.352 3.193-.352zM105.117 5.5V28h-4.219V5.5zm-.6 14.019h-1.158q.015-1.656.44-3.047.424-1.406 1.216-2.432a5.6 5.6 0 0 1 1.889-1.611q1.114-.572 2.461-.572 1.172 0 2.124.337a3.95 3.95 0 0 1 1.656 1.055q.703.717 1.084 1.89.38 1.17.38 2.842V28h-4.248V17.951q0-1.055-.307-1.655-.294-.615-.865-.864-.556-.264-1.377-.264-.908 0-1.552.337-.63.337-1.011.937-.38.587-.557 1.377a8 8 0 0 0-.175 1.7m21.855 4.907v-7.06q0-.763-.249-1.305a1.86 1.86 0 0 0-.776-.864q-.513-.307-1.333-.307-.703 0-1.216.249a1.76 1.76 0 0 0-.791.688q-.279.44-.278 1.04h-4.219q0-1.01.469-1.919.468-.908 1.362-1.596.894-.704 2.124-1.1 1.245-.395 2.783-.395 1.846 0 3.281.616 1.435.615 2.256 1.845.835 1.23.835 3.077v6.782q0 1.304.161 2.138.162.82.469 1.436V28h-4.263q-.308-.645-.468-1.611a13 13 0 0 1-.147-1.963m.557-6.08.029 2.388H124.6q-.835 0-1.451.19-.615.191-1.01.543a2.1 2.1 0 0 0-.586.79 2.7 2.7 0 0 0-.176.997q0 .541.249.981.249.425.718.674.468.234 1.098.235.952 0 1.656-.381.702-.381 1.084-.938.395-.556.41-1.055l1.113 1.788q-.234.6-.644 1.245-.396.645-1.011 1.216-.615.556-1.48.922-.864.352-2.05.352-1.509 0-2.74-.6a5 5 0 0 1-1.933-1.685q-.703-1.084-.703-2.461 0-1.245.468-2.212a4.3 4.3 0 0 1 1.377-1.626q.923-.675 2.3-1.01 1.377-.352 3.193-.352zm11.074-2.812V28h-4.219V12.15h3.955zm-.615 3.985h-1.143q0-1.758.454-3.164.454-1.421 1.275-2.418a5.5 5.5 0 0 1 1.948-1.538q1.142-.541 2.549-.542 1.113 0 2.036.323a3.9 3.9 0 0 1 1.582 1.025q.674.704 1.025 1.86.366 1.157.366 2.828V28h-4.248V17.878q0-1.055-.293-1.64a1.64 1.64 0 0 0-.864-.821q-.557-.249-1.377-.249-.849 0-1.479.337-.615.337-1.026.937-.395.587-.6 1.377a6.7 6.7 0 0 0-.205 1.7m17.827 4.38 3.296-11.749h2.68l-.864 4.615L157.031 28h-2.241zm-1.67-11.749 2.358 11.734.22 4.116h-2.637l-4.013-15.85zm10.664 11.543 2.3-11.543h4.087L166.582 28h-2.622zm-2.651-11.543 3.281 11.66.454 4.19h-2.256l-3.296-11.22-.835-4.63zm15.615 0V28h-4.234V12.15zm-4.497-4.13q0-.924.644-1.524.645-.6 1.729-.6 1.07 0 1.714.6.659.6.659 1.524 0 .923-.659 1.523-.645.6-1.714.6-1.084 0-1.729-.6-.644-.6-.644-1.523m12.202 7.587V28h-4.219V12.15h3.97zm4.775-3.56-.073 3.912q-.308-.045-.747-.073a8 8 0 0 0-.776-.044q-.894 0-1.553.234-.645.22-1.084.66-.424.439-.645 1.069a5.3 5.3 0 0 0-.234 1.435l-.85-.263q0-1.538.308-2.828.308-1.304.894-2.27.6-.968 1.464-1.494.865-.528 1.978-.528.352 0 .718.059.366.044.6.132m8.994 16.246q-1.846 0-3.31-.586-1.465-.6-2.49-1.655a7.4 7.4 0 0 1-1.553-2.447 8.2 8.2 0 0 1-.542-2.988v-.586q0-1.801.513-3.296.512-1.494 1.464-2.592a6.44 6.44 0 0 1 2.344-1.685q1.377-.6 3.106-.6 1.684 0 2.988.556a5.86 5.86 0 0 1 2.183 1.582q.893 1.026 1.347 2.461.454 1.42.454 3.164v1.758h-12.597v-2.813h8.452v-.322q0-.879-.322-1.567a2.5 2.5 0 0 0-.938-1.114q-.63-.41-1.611-.41-.835 0-1.436.367-.6.366-.981 1.025-.366.66-.557 1.553a10 10 0 0 0-.176 1.933v.586q0 .952.264 1.758a4.3 4.3 0 0 0 .776 1.392q.513.585 1.231.908.732.322 1.655.322 1.143 0 2.124-.44a4.6 4.6 0 0 0 1.714-1.362l2.051 2.227q-.498.717-1.362 1.377-.85.659-2.051 1.084-1.201.41-2.74.41"/></svg>
